Solution/ChromeWorker/html/scenario/icons/gear.svg

<svg xmlns="http://www.w3.org/2000/svg" width="13" height="13" fill="none" viewBox="0 0 13 13">
  <path fill="#9E9E9E" stroke="#9D996C" d="M11.1224 7.50368l-.2971.04496-.0997.28345c-.1014.28814-.2014.51922-.2983.69839l-.1468.27157.1771.25291c.1935.27641.4757.6418.8424 1.09264-.1418.1744-.3734.4233-.7077.7529-.1969.1941-.3468.3268-.4539.4077-.0006.0005-.0013.001-.0019.0015l-1.06858-.8363-.25397-.1987-.28581.1494c-.2229.1165-.45301.2126-.69058.2884l-.30691.0979-.03764.32c-.07602.6462-.14364 1.0969-.20098 1.3696H5.72417l-.21098-1.3864-.04633-.3045-.29278-.0956c-.25437-.0831-.48363-.1777-.68898-.2829l-.27978-.1433-.25041.1901-1.08282.8217c-.56797-.5184-.9416-.8977-1.14465-1.1481.08061-.108.19619-.25743.34891-.45046.2045-.25846.36242-.46439.4707-.61477l.18299-.25416-.14881-.27557c-.1371-.25387-.23821-.49969-.3062-.73766l-.08862-.31021-.31916-.04709L.5 7.25936V5.7037l1.37716-.20732.31204-.04697.09187-.30188c.06834-.22454.1647-.45298.29105-.68546l.14799-.2723-.17802-.25368c-.21701-.30924-.49727-.67263-.83843-1.08874.13808-.16957.36678-.41516.69984-.74363.19698-.19427.34737-.32765.45514-.40945l1.07522.83368.2536.19664.2844-.14866c.2229-.11652.45301-.21258.69058-.2884l.30691-.09795.03764-.31996C5.58301 1.22345 5.65063.772692 5.70797.5h1.56786l.21098 1.38642.04633.30448.29278.0956c.25438.08306.48363.17769.68898.28287l.27873.14277.25011-.18847 1.09156-.82249c.5728.53299.9423.91271 1.1346 1.15137-.0804.10771-.1952.25596-.3463.44691-.2045.25846-.3624.46439-.4706.61477l-.1799.24977.142.27305c.1347.25906.2385.50831.3134.7479l.0931.2979.3085.04721 1.3699.2096v1.55552l-1.3776.2085zm-1.0903 3.87462c.0001-.0002.0019-.0011.0056-.0026-.0038.002-.0056.0027-.0056.0026zM2.96844 1.62159c-.00004.00012-.00197.0011-.00565.00257.00386-.00196.0057-.00269.00565-.00257zM5.74093.358254c0-.000025 0-.00002-.00001.000016l.00001-.000016zM9.16667 6.5c0-.73079-.26434-1.36858-.78121-1.88545-.51688-.51688-1.15467-.78122-1.88546-.78122-.73079 0-1.36858.26434-1.88545.78122-.51688.51687-.78122 1.15466-.78122 1.88545s.26434 1.36858.78122 1.88546c.51687.51687 1.15466.78121 1.88545.78121.7308 0 1.36858-.26434 1.88545-.78121.51688-.51688.78122-1.15466.78122-1.88546z"/>
</svg>

<svg width="13" height="13" viewBox="0 0 13 13" fill="none" xmlns="http://www.w3.org/2000/svg">
<path d="M11.1224 7.50368L10.8253 7.54864L10.7256 7.83209C10.6242 8.12023 10.5242 8.35131 10.4273 8.53048L10.2805 8.80205L10.4576 9.05496C10.6511 9.33137 10.9333 9.69676 11.3 10.1476C11.1582 10.322 10.9266 10.5709 10.5923 10.9005C10.3954 11.0946 10.2455 11.2273 10.1384 11.3082C10.1378 11.3087 10.1371 11.3092 10.1365 11.3097L9.06792 10.4734L8.81395 10.2747L8.52814 10.4241C8.30524 10.5406 8.07513 10.6367 7.83756 10.7125L7.53065 10.8104L7.49301 11.1304C7.41699 11.7766 7.34937 12.2273 7.29203 12.5H5.72417L5.51319 11.1136L5.46686 10.8091L5.17408 10.7135C4.91971 10.6304 4.69045 10.5358 4.4851 10.4306L4.20532 10.2873L3.95491 10.4774L2.87209 11.2991C2.30412 10.7807 1.93049 10.4014 1.72744 10.151C1.80805 10.043 1.92363 9.89357 2.07635 9.70054C2.28085 9.44208 2.43877 9.23615 2.54705 9.08577L2.73004 8.83161L2.58123 8.55604C2.44413 8.30217 2.34302 8.05635 2.27503 7.81838L2.18641 7.50817L1.86725 7.46108L0.5 7.25936V5.7037L1.87716 5.49638L2.1892 5.44941L2.28107 5.14753C2.34941 4.92299 2.44577 4.69455 2.57212 4.46207L2.72011 4.18977L2.54209 3.93609C2.32508 3.62685 2.04482 3.26346 1.70366 2.84735C1.84174 2.67778 2.07044 2.43219 2.4035 2.10372C2.60048 1.90945 2.75087 1.77607 2.85864 1.69427L3.93386 2.52795L4.18746 2.72459L4.47186 2.57593C4.69476 2.45941 4.92487 2.36335 5.16244 2.28753L5.46935 2.18958L5.50699 1.86962C5.58301 1.22345 5.65063 0.772692 5.70797 0.5H7.27583L7.48681 1.88642L7.53314 2.1909L7.82592 2.2865C8.0803 2.36956 8.30955 2.46419 8.5149 2.56937L8.79363 2.71214L9.04374 2.52367L10.1353 1.70118C10.7081 2.23417 11.0776 2.61389 11.2699 2.85255C11.1895 2.96026 11.0747 3.10851 10.9236 3.29946C10.7191 3.55792 10.5612 3.76385 10.453 3.91423L10.2731 4.164L10.4151 4.43705C10.5498 4.69611 10.6536 4.94536 10.7285 5.18495L10.8216 5.48285L11.1301 5.53006L12.5 5.73966V7.29518L11.1224 7.50368ZM10.0321 11.3783C10.0322 11.3781 10.034 11.3772 10.0377 11.3757C10.0339 11.3777 10.0321 11.3784 10.0321 11.3783ZM2.96844 1.62159C2.9684 1.62171 2.96647 1.62269 2.96279 1.62416C2.96665 1.6222 2.96849 1.62147 2.96844 1.62159ZM5.74093 0.358254C5.74093 0.358229 5.74093 0.358234 5.74092 0.35827L5.74093 0.358254ZM9.16667 6.5C9.16667 5.76921 8.90233 5.13142 8.38546 4.61455C7.86858 4.09767 7.23079 3.83333 6.5 3.83333C5.76921 3.83333 5.13142 4.09767 4.61455 4.61455C4.09767 5.13142 3.83333 5.76921 3.83333 6.5C3.83333 7.23079 4.09767 7.86858 4.61455 8.38546C5.13142 8.90233 5.76921 9.16667 6.5 9.16667C7.2308 9.16667 7.86858 8.90233 8.38545 8.38546C8.90233 7.86858 9.16667 7.2308 9.16667 6.5Z" fill="#9E9E9E" stroke="#9D996C"/>
</svg>
